svg/white/edg.svg

<svg xmlns="http://www.w3.org/2000/svg" width="32" height="32" viewBox="0 0 32 32">
  <path fill="#FFF" fill-rule="evenodd" d="M16,32 C7.163444,32 0,24.836556 0,16 C0,7.163444 7.163444,0 16,0 C24.836556,0 32,7.163444 32,16 C32,24.836556 24.836556,32 16,32 Z M24.9901316,12.5017491 C24.9901316,12.103948 24.8963816,11.7071464 24.7325658,11.3473263 C24.475,10.7756122 24.0782895,10.2418791 23.5365132,9.92103948 C21.5075658,8.72863568 19.4746711,7.54722639 17.4457237,6.35582209 C17.2138158,6.21989005 16.9523026,6.14392804 16.6947368,6.07196402 C16.1075658,5.96501749 15.5134868,5.992004 14.9608553,6.16991504 C14.6282895,6.28385807 14.3371711,6.49175412 14.0302632,6.66166917 C12.1651316,7.75212394 10.3009868,8.84157921 8.43585526,9.92803598 C8.19309211,10.075962 7.97598684,10.2688656 7.79736842,10.4917541 C7.35625,11.0214893 7.04638158,11.6841579 7.00888158,12.3838081 C7.00888158,14.7796102 7.00888158,17.1754123 7.00888158,19.5702149 C7.00888158,20.0509745 7.16973684,20.5127436 7.38980263,20.9325337 C7.65921053,21.4172914 8.02532895,21.8670665 8.51480263,22.13993 C10.5210526,23.3093453 12.5282895,24.4827586 14.5345395,25.6521739 C14.8296053,25.822089 15.1582237,25.9210395 15.4947368,25.966017 C16.1411184,26.045977 16.8289474,25.9930035 17.4111842,25.6821589 C19.3167763,24.5697151 21.2184211,23.4572714 23.125,22.3478261 C23.4052632,22.1809095 23.7003289,22.033983 23.9361842,21.8070965 C24.4335526,21.3413293 24.7878289,20.7166417 24.9378289,20.0469765 C25.0049342,19.7561219 24.9901316,19.4542729 24.9901316,19.1584208 C24.9901316,16.9365317 24.9901316,14.7186407 24.9901316,12.5017491 Z M15.9398026,10.025987 C16.0069079,10.0489755 16.0523026,10.093953 16.0819079,10.1589205 C16.4440789,10.8325837 16.9523026,11.4152924 17.4832237,11.96002 C17.8266447,12.2968516 18.08125,12.7356322 18.1671053,13.2163918 C18.2796053,13.7501249 17.9657895,14.3408296 17.4605263,14.5337331 C17.0904605,14.6776612 16.6611842,14.6506747 16.3059211,14.4767616 C16.2388158,14.4537731 16.1263158,14.3748126 16.0858553,14.4687656 C16.1529605,14.9305347 16.3888158,15.3353323 16.6019737,15.7361319 C16.6542763,15.8230885 16.5536184,15.884058 16.5052632,15.94003 C16.2851974,16.143928 16.0976974,16.3868066 15.8588816,16.5717141 C15.7878289,16.5487256 15.7394737,16.4807596 15.6871711,16.4317841 C15.4819079,16.2158921 15.2648026,16.007996 15.0595395,15.7881059 C15.0555921,15.7731134 15.0516447,15.7351324 15.0486842,15.7201399 C15.2766447,15.3113443 15.5648026,14.9105447 15.6388158,14.4367816 C15.5638158,14.4257871 15.4898026,14.4367816 15.4217105,14.4667666 C15.0447368,14.6146927 14.6144737,14.6486757 14.2335526,14.4967516 C13.8595395,14.3528236 13.5723684,13.9970015 13.5269737,13.5922039 C13.4894737,13.2933533 13.5792763,12.9945027 13.7134868,12.7326337 C13.8802632,12.3618191 14.1605263,12.0629685 14.4526316,11.7861069 C15.0171053,11.2603698 15.5026316,10.6586707 15.9398026,10.025987 Z M12.3072368,16.5357321 C12.8756579,16.1909045 13.6,16.145927 14.2059211,16.4067966 C14.2542763,16.4257871 14.2661184,16.4367816 14.3026316,16.4597701 C14.4970395,16.5357321 14.6648026,16.6606697 14.8217105,16.8005997 C15.1769737,17.1074463 15.4641447,17.4852574 15.8273026,17.7841079 C16.1786184,17.4512744 16.5032895,17.0874563 16.8585526,16.7626187 C17.3588816,16.3008496 18.0921053,16.1649175 18.7414474,16.2968516 C19.7578947,16.4977511 20.5128289,17.5492254 20.4417763,18.5907046 C20.4082237,19.2493753 20.0796053,19.90005 19.5407895,20.2748626 C19.1746711,20.5287356 18.7414474,20.7096452 18.2924342,20.6986507 C17.7023026,20.7216392 17.1230263,20.4567716 16.7046053,20.043978 C15.9161184,19.2533733 15.1542763,18.4357821 14.3618421,17.6481759 C14.1299342,17.3983008 13.8161184,17.2163918 13.4726974,17.1944028 C13.2299342,17.1834083 12.9832237,17.2433783 12.7631579,17.3533233 C12.4226974,17.5352324 12.1947368,17.898051 12.1394737,18.2808596 C12.0684211,18.6856572 12.2144737,19.1244378 12.5164474,19.4012994 C12.9832237,19.852074 13.8023026,19.848076 14.2572368,19.3863068 C14.3726974,19.2883558 14.48125,19.0914543 14.6608553,19.1704148 C14.7733553,19.2383808 14.8513158,19.3523238 14.9490132,19.4392804 C15.0240132,19.5262369 15.1394737,19.5982009 15.1503289,19.7271364 C15.1503289,19.856072 15.0348684,19.9310345 14.9559211,20.0149925 C14.7467105,20.2348826 14.5039474,20.4197901 14.2197368,20.5337331 C13.6700658,20.7496252 13.0355263,20.7536232 12.4898026,20.5187406 C11.6263158,20.1289355 11.0697368,19.1334333 11.2078947,18.17991 C11.3055921,17.5012494 11.70625,16.8615692 12.3072368,16.5357321 Z M17.3440789,17.5882059 C17.0677632,17.876062 16.7835526,18.151924 16.5072368,18.4397801 C16.5111842,18.4587706 16.5151316,18.5007496 16.5180921,18.5227386 C16.8506579,18.8325837 17.1417763,19.1854073 17.4891447,19.4802599 C17.9559211,19.878061 18.7,19.8250875 19.1332237,19.4042979 C19.5555921,18.9915042 19.6523026,18.2728636 19.3236842,17.7731134 C19.1144737,17.4322839 18.7296053,17.2203898 18.3338816,17.2093953 C17.96875,17.1794103 17.6026316,17.3303348 17.3440789,17.5882059 Z"/>
</svg>

<svg xmlns="http://www.w3.org/2000/svg" width="32" height="32"><path fill="#FFF" fill-rule="evenodd" d="M16 32C7.163 32 0 24.837 0 16S7.163 0 16 0s16 7.163 16 16-7.163 16-16 16zm8.99-19.498c0-.398-.094-.795-.257-1.155-.258-.571-.655-1.105-1.196-1.426-2.03-1.192-4.062-2.374-6.091-3.565-.232-.136-.494-.212-.751-.284a3.564 3.564 0 0 0-1.734.098c-.333.114-.624.322-.93.492-1.866 1.09-3.73 2.18-5.595 3.266a2.47 2.47 0 0 0-.639.564c-.44.53-.75 1.192-.788 1.892v7.186c0 .481.16.943.38 1.363.27.484.636.934 1.126 1.207 2.006 1.17 4.013 2.343 6.02 3.512.295.17.623.269.96.314.646.08 1.334.027 1.916-.284 1.906-1.112 3.807-2.225 5.714-3.334.28-.167.575-.314.811-.54a3.47 3.47 0 0 0 1.002-1.761c.067-.29.052-.593.052-.889v-6.656zm-9.05-2.476a.235.235 0 0 1 .142.133c.362.674.87 1.256 1.401 1.801.344.337.598.776.684 1.256.113.534-.201 1.125-.706 1.318-.37.144-.8.117-1.155-.057-.067-.023-.18-.102-.22-.008.067.462.303.866.516 1.267.052.087-.048.148-.097.204-.22.204-.407.447-.646.632-.071-.023-.12-.091-.172-.14-.205-.216-.422-.424-.627-.644-.004-.015-.008-.053-.011-.068.228-.409.516-.81.59-1.283a.393.393 0 0 0-.217.03c-.377.148-.808.182-1.188.03a1.125 1.125 0 0 1-.707-.905c-.038-.299.052-.597.186-.86.167-.37.448-.669.74-.946a10.676 10.676 0 0 0 1.487-1.76zm-3.633 6.51a2.103 2.103 0 0 1 1.899-.13c.048.02.06.03.097.054.194.076.362.2.519.34.355.307.642.685 1.005.984.352-.333.676-.697 1.032-1.021.5-.462 1.233-.598 1.882-.466 1.017.2 1.772 1.252 1.7 2.294-.033.658-.361 1.309-.9 1.684-.366.254-.8.435-1.249.424-.59.023-1.169-.242-1.587-.655-.789-.79-1.55-1.608-2.343-2.396-.232-.25-.546-.432-.89-.454a1.456 1.456 0 0 0-.709.16c-.34.181-.568.544-.624.927-.07.405.075.843.377 1.12.467.451 1.286.447 1.741-.015.116-.098.224-.295.404-.216.112.068.19.182.288.27.075.086.19.158.201.287 0 .13-.115.204-.194.288-.21.22-.452.405-.736.519-.55.216-1.184.22-1.73-.015-.864-.39-1.42-1.386-1.282-2.34.098-.678.498-1.317 1.1-1.643zm5.037 1.052c-.276.288-.56.564-.837.852.004.019.008.06.011.083.333.31.624.662.971.957.467.398 1.211.345 1.644-.076.423-.412.52-1.131.19-1.63a1.212 1.212 0 0 0-.99-.565c-.364-.03-.73.121-.989.38z"/></svg>
